_site/images/resources-page/icon-data-escrow.svg

<svg fill="none" height="70" viewBox="0 0 70 70" width="70" xmlns="http://www.w3.org/2000/svg"><g fill="#00a0b6"><path d="m64.9528 19.7511c-.8139-2.1137-2.4842-3.7355-4.5237-4.521-1.1636-3.0274-4.0828-5.0482-7.3281-5.0482h-21.8676c-.5471-.57543-1.1135-1.0766-1.7012-1.50381l-2.6448-2.83408c-2.2113-2.40998-4.7384-3.58131-7.7258-3.58131h-11.31312c-4.32769 0-7.84848 3.52078-7.84848 7.8485v40.7273c0 3.2453 2.02081 6.1645 5.04806 7.328.78541 2.0397 2.40701 3.7098 4.52115 4.5236 1.13049 2.948 3.98889 5.0473 7.32979 5.0473h45.2525c4.3277 0 7.8485-3.5207 7.8485-7.8484v-32.8081c0-3.3409-2.0992-6.1993-5.0472-7.3298zm-2.6667-.5153c-.0449-.0007-.0895-.0034-.1346-.0034h-22.1654l-2.2435-2.404h19.8837c1.8738 0 3.5999.9251 4.6598 2.4074zm-4.5258-4.526c-.0447-.0007-.0892-.0027-.134-.0027h-21.495c-.1131 0-.2219.0181-.3241.0509-.9164-.9732-1.8865-1.7382-2.9211-2.296.0046-.0528.0061-.1059.0027-.1589h20.2122c1.874 0 3.5996.9247 4.6593 2.4067zm-55.63909 36.1287v-40.7273c0-3.15808 2.56921-5.72729 5.72727-5.72729h11.31312c2.214 0 4.0558.78937 5.7587 2.47644-.4026-.04652-.813-.0724-1.2334-.0724h-11.3132c-4.32766 0-7.84845 3.52075-7.84845 7.84845v40.7273c0 .0448.00184.0894.00269.1341-1.48202-1.0599-2.40673-2.7853-2.40673-4.6593zm4.52525 4.5252v-40.7273c0-3.158 2.56922-5.72724 5.72724-5.72724h11.3132c1.6515 0 3.0959.43867 4.4302 1.36154l1.0114 1.0838c-.3011-.0256-.6057-.0413-.9164-.0413h-11.3131c-4.3277 0-7.8485 3.5208-7.8485 7.8485v40.7273c0 .0451.00269.0896.0034.1346-1.4823-1.0598-2.40744-2.7855-2.40744-4.6599zm61.23234 4.5253c0 3.158-2.5692 5.7272-5.7273 5.7272h-45.2525c-3.1581 0-5.7273-2.5692-5.7273-5.7272v-26.0202c0-3.1581 2.5692-5.7273 5.7273-5.7273h45.2525c3.1581 0 5.7273 2.5692 5.7273 5.7273zm-5.7273-33.8687h-45.2525c-2.2575 0-4.2941.9593-5.7273 2.4903v-9.3489c0-3.1581 2.5692-5.7273 5.7273-5.7273h11.3131c2.3927 0 4.351.9196 6.1688 2.9007l4.369 4.6815c.2005.215.4814.337.7753.337h22.6263c3.1581 0 5.7273 2.5692 5.7273 5.7273v1.4297c-1.4332-1.531-3.4698-2.4903-5.7273-2.4903z"/><path d="m62.1496 32.8081h-12.4445c-.5857 0-1.0606.4747-1.0606 1.0606s.4749 1.0606 1.0606 1.0606h12.4445c.5857 0 1.0606-.4747 1.0606-1.0606s-.4749-1.0606-1.0606-1.0606z"/><path d="m62.1496 37.3333h-12.4445c-.5857 0-1.0606.4747-1.0606 1.0606 0 .5858.4749 1.0606 1.0606 1.0606h12.4445c.5857 0 1.0606-.4748 1.0606-1.0606 0-.5859-.4749-1.0606-1.0606-1.0606z"/></g></svg>

<svg width="70" height="70" viewBox="0 0 70 70" fill="none" xmlns="http://www.w3.org/2000/svg">
<path d="M64.9528 19.7511C64.1389 17.6374 62.4686 16.0156 60.4291 15.2301C59.2655 12.2027 56.3463 10.1819 53.101 10.1819H31.2334C30.6863 9.60647 30.1199 9.1053 29.5322 8.67809L26.8874 5.84401C24.6761 3.43403 22.149 2.2627 19.1616 2.2627H7.84848C3.52079 2.2627 0 5.78348 0 10.1112V50.8385C0 54.0838 2.02081 57.003 5.04806 58.1665C5.83347 60.2062 7.45507 61.8763 9.56921 62.6901C10.6997 65.6381 13.5581 67.7374 16.899 67.7374H62.1515C66.4792 67.7374 70 64.2167 70 59.889V27.0809C70 23.74 67.9008 20.8816 64.9528 19.7511ZM62.2861 19.2358C62.2412 19.2351 62.1966 19.2324 62.1515 19.2324H39.9861L37.7426 16.8284H57.6263C59.5001 16.8284 61.2262 17.7535 62.2861 19.2358ZM57.7603 14.7098C57.7156 14.7091 57.6711 14.7071 57.6263 14.7071H36.1313C36.0182 14.7071 35.9094 14.7252 35.8072 14.758C34.8908 13.7848 33.9207 13.0198 32.8861 12.462C32.8907 12.4092 32.8922 12.3561 32.8888 12.3031H53.101C54.975 12.3031 56.7006 13.2278 57.7603 14.7098ZM2.12121 50.8385V10.1112C2.12121 6.95312 4.69042 4.38391 7.84848 4.38391H19.1616C21.3756 4.38391 23.2174 5.17328 24.9203 6.86035C24.5177 6.81383 24.1073 6.78795 23.6869 6.78795H12.3737C8.04604 6.78795 4.52525 10.3087 4.52525 14.6364V55.3637C4.52525 55.4085 4.52709 55.4531 4.52794 55.4978C3.04592 54.4379 2.12121 52.7125 2.12121 50.8385ZM6.64646 55.3637V14.6364C6.64646 11.4784 9.21568 8.90916 12.3737 8.90916H23.6869C25.3384 8.90916 26.7828 9.34783 28.1171 10.2707L29.1285 11.3545C28.8274 11.3289 28.5228 11.3132 28.2121 11.3132H16.899C12.5713 11.3132 9.0505 14.834 9.0505 19.1617V59.889C9.0505 59.9341 9.05319 59.9786 9.0539 60.0236C7.5716 58.9638 6.64646 57.2381 6.64646 55.3637ZM67.8788 59.889C67.8788 63.047 65.3096 65.6162 62.1515 65.6162H16.899C13.7409 65.6162 11.1717 63.047 11.1717 59.889V33.8688C11.1717 30.7107 13.7409 28.1415 16.899 28.1415H62.1515C65.3096 28.1415 67.8788 30.7107 67.8788 33.8688V59.889ZM62.1515 26.0203H16.899C14.6415 26.0203 12.6049 26.9796 11.1717 28.5106V19.1617C11.1717 16.0036 13.7409 13.4344 16.899 13.4344H28.2121C30.6048 13.4344 32.5631 14.354 34.3809 16.3351L38.7499 21.0166C38.9504 21.2316 39.2313 21.3536 39.5252 21.3536H62.1515C65.3096 21.3536 67.8788 23.9228 67.8788 27.0809V28.5106C66.4456 26.9796 64.409 26.0203 62.1515 26.0203Z" fill="#00A0B6"/>
<path d="M62.1496 32.8081H49.7051C49.1194 32.8081 48.6445 33.2828 48.6445 33.8687C48.6445 34.4546 49.1194 34.9293 49.7051 34.9293H62.1496C62.7353 34.9293 63.2102 34.4546 63.2102 33.8687C63.2102 33.2828 62.7353 32.8081 62.1496 32.8081Z" fill="#00A0B6"/>
<path d="M62.1496 37.3333H49.7051C49.1194 37.3333 48.6445 37.808 48.6445 38.3939C48.6445 38.9797 49.1194 39.4545 49.7051 39.4545H62.1496C62.7353 39.4545 63.2102 38.9797 63.2102 38.3939C63.2102 37.808 62.7353 37.3333 62.1496 37.3333Z" fill="#00A0B6"/>
</svg>
